src/components/00-materials/images-raw/Mental Disability.svg

<svg width="96" height="96" viewBox="0 0 96 96" fill="none" xmlns="http://www.w3.org/2000/svg">
<path d="M40.83 74.4598C43.75 77.2598 48.33 78.4598 52.26 78.4598C55.1349 78.5261 57.9734 77.8069 60.47 76.3798C68.14 72.0898 72 64.7698 73.67 60.7798C74.3803 59.0368 74.7438 57.172 74.74 55.2898V49.9998C75.5666 49.2837 76.2089 48.3794 76.6127 47.363C77.0165 46.3466 77.1699 45.248 77.06 44.1598L76.81 41.5698C76.7497 41.0817 76.7497 40.588 76.81 40.0998L77.9 33.3598C78.0248 32.5429 77.8246 31.7096 77.3423 31.0386C76.86 30.3675 76.1341 29.912 75.32 29.7698C75.2 23.6198 74.17 20.1298 73.32 18.3298H49.11" stroke="#00008F" stroke-width="2" stroke-linecap="round" stroke-linejoin="round"/>
<path d="M17.49 16.4099C17.0947 16.4151 16.7173 16.5752 16.4387 16.8556C16.1601 17.1361 16.0026 17.5146 16 17.9099V66.3899C16.007 66.6418 16.0753 66.8882 16.199 67.1078C16.3228 67.3274 16.4981 67.5134 16.71 67.6499C16.71 67.6499 26.44 75.9199 37 75.9199C37.7956 75.966 38.591 75.8265 39.3234 75.5123C40.0557 75.1982 40.7051 74.7181 41.22 74.1099C42.2401 72.9873 42.7912 71.5165 42.76 69.9999V64.7499C42.7577 64.6002 42.8088 64.4547 42.9041 64.3392C42.9993 64.2238 43.1326 64.146 43.28 64.1199C43.5439 64.0722 43.7901 63.9541 43.9925 63.7781C44.1949 63.6021 44.3461 63.3747 44.43 63.1199C44.5268 62.8232 44.5267 62.5033 44.4296 62.2067C44.3325 61.91 44.1435 61.652 43.89 61.4699L39.67 58.3999C39.5306 58.304 39.4267 58.1649 39.3742 58.004C39.3218 57.8432 39.3238 57.6695 39.38 57.5099C39.4314 57.3464 39.534 57.2037 39.6726 57.1029C39.8112 57.0021 39.9786 56.9484 40.15 56.9499H46C46.1978 56.9512 46.394 56.9134 46.5771 56.8386C46.7602 56.7638 46.9268 56.6535 47.0671 56.5141C47.2075 56.3747 47.3189 56.2089 47.3949 56.0263C47.4709 55.8436 47.51 55.6477 47.51 55.4499V53.9299L47.8 53.7199L53 50.7899C53.5054 50.4643 53.8681 49.9588 54.0148 49.3758C54.1615 48.7928 54.0811 48.1759 53.79 47.6499L49.15 39.1599V17.9099C49.1474 17.5112 48.9871 17.1297 48.7042 16.8486C48.4213 16.5676 48.0387 16.4099 47.64 16.4099H17.49Z" stroke="#00008F" stroke-width="2" stroke-linecap="round" stroke-linejoin="round"/>
<path d="M48 62.0698C48.06 62.0698 54.64 65.2298 60.86 62.0698" stroke="#00008F" stroke-width="2" stroke-miterlimit="10" stroke-linecap="round"/>
<path d="M37.33 39.8999C39.1967 39.8999 40.71 38.3956 40.71 36.5399C40.71 34.6843 39.1967 33.1799 37.33 33.1799C35.4633 33.1799 33.95 34.6843 33.95 36.5399C33.95 38.3956 35.4633 39.8999 37.33 39.8999Z" stroke="#00008F" stroke-width="2" stroke-linecap="round" stroke-linejoin="round"/>
<path d="M60.91 39.8999C62.7767 39.8999 64.29 38.3956 64.29 36.5399C64.29 34.6843 62.7767 33.1799 60.91 33.1799C59.0433 33.1799 57.53 34.6843 57.53 36.5399C57.53 38.3956 59.0433 39.8999 60.91 39.8999Z" stroke="#00008F" stroke-width="2" stroke-linecap="round" stroke-linejoin="round"/>
</svg>

<svg width="96" height="96" viewBox="0 0 96 96" fill="none" xmlns="http://www.w3.org/2000/svg"><path d="M40.83 74.46c2.92 2.8 7.5 4 11.43 4a15.81 15.81 0 008.21-2.08c7.67-4.29 11.53-11.61 13.2-15.6a14.47 14.47 0 001.07-5.49V50a6.82 6.82 0 002.32-5.84l-.25-2.59a5.995 5.995 0 010-1.47l1.09-6.74a3.16 3.16 0 00-2.58-3.59c-.12-6.15-1.15-9.64-2-11.44H49.11" stroke="#00008F" stroke-width="2" stroke-linecap="round" stroke-linejoin="round"/><path d="M17.49 16.41a1.51 1.51 0 00-1.49 1.5v48.48a1.55 1.55 0 00.71 1.26s9.73 8.27 20.29 8.27a5.139 5.139 0 004.22-1.81A5.93 5.93 0 0042.76 70v-5.25a.63.63 0 01.52-.63 1.49 1.49 0 001.15-1 1.47 1.47 0 00-.54-1.65l-4.22-3.07a.77.77 0 01-.29-.89.8.8 0 01.77-.56H46a1.5 1.5 0 001.51-1.5v-1.52l.29-.21 5.2-2.93a2.37 2.37 0 00.79-3.14l-4.64-8.49V17.91a1.51 1.51 0 00-1.51-1.5H17.49z" stroke="#00008F" stroke-width="2" stroke-linecap="round" stroke-linejoin="round"/><path d="M48 62.07c.06 0 6.64 3.16 12.86 0" stroke="#00008F" stroke-width="2" stroke-miterlimit="10" stroke-linecap="round"/><path d="M37.33 39.9c1.867 0 3.38-1.504 3.38-3.36 0-1.856-1.513-3.36-3.38-3.36s-3.38 1.504-3.38 3.36c0 1.856 1.513 3.36 3.38 3.36zM60.91 39.9c1.867 0 3.38-1.504 3.38-3.36 0-1.856-1.513-3.36-3.38-3.36s-3.38 1.504-3.38 3.36c0 1.856 1.513 3.36 3.38 3.36z" stroke="#00008F" stroke-width="2" stroke-linecap="round" stroke-linejoin="round"/></svg>
